X:1056
T:Valse des Jouets
C:Michel Faubert
M:3/4 
L:1/8
Z:Play with a lightly dotted rhythm
Z:<http://tunes.nhcountrydance.com>.
K:D
A>d \
|: "D" f>e f>g f>e | "G" d>B A>F D2 | "D" f>e f>g f>e    |  "G" d>B "D" A>F D2  |
  "Em" e>d e>f e>d | "A" c3 d c>B   | "A" A2 A>B (3(cBA) |  "D" d>B "D" A>F D2  |
"D" f>e f>g f>e    | "G" d>B A>F D2 | "D" f>e f>g f>e    |  "G" d>B "D" A>F D2  |
  "Em" e>d e>f e>d | "A" c3 d c>B   | "A" A>B A>G F>E    |1 "D" D3 A d>e       :|2 "D" D2 Ld2>c2 |]
|: "D" d>A F>A G>A | "Em" B3 d d>B  | "A" c>A B>c d>e    |  "D" f3 f d>f        |
  "Bm" b>f d>f b>f | "Em" g2 e3 d   | "A" c>A c>e a>e    |  "D" f2 d3 c         |
  "Bm" B>F F>F B>F | "Em" G3 e e>d  | "A" c>B     A>G F>E   |  "F#" F6             |
   "G" G>F G>A B>c | "D"  d>e f3 f  | "A" g>e c>e B>A    |1 "D" d4 d>c         :|2 "D" d4 A>d |]

